X: 36055
T: Scartaglen, The
R: slide
M: 12/8
K: Cmajor
G2g g^fg F2f fef|G2g g^fg def AGF|
G2g g^fg F2f fef|e/f/ge fed c3 c2A
G2g g^fg F2f fef|gag gfe def AGF|
gfe fed edc dcB|AGA fed c3 c2A|
|:~B3 BdB AcA GBG|FAF cec GBd fed|
c3 BdB AcA GBG|FAF cec fed c2A:|

